X: 5
P: Lanagan's Ball
O: Trad
R: jig
Z: 1997 by John Chambers <jc@trillian.mit.edu>
M: 6/8
L: 1/8
K: EDor
|: "Em"EFE G2A | B2A B2d | "D"DED   F2G | AdB AFD \
| "Em"EFE G2A | B2A Bcd | edB "Am"=cBA | "Em"BEE E3 :|
B \
|: "Em"e2f gfe | "D"a2g fed | "Em"e2f gfe | "Bm"fBB B2B \
| "Em"e2f gfe | "D"a2g fed | "Em"edB "Am"=cBA | "Em"BEE E3 :|
